X:304
T:Heres a Health to all Good Lasses. RH.304
R:march
S:Rev.R.Harrison’s MS,c1815,Cumbria
N:The trilled notes have an assortment of suggested decorations
N:about an octave down that might mean something to a flautist,
N:but it is not possible to show it in ABC. CGP.
N:A 12-bar A music, and a 23-bar (!) B music, of which the
N:first 6 bars are a trilled high g. Weird, eh? PJH.
O:England
A:Temple Sowerby,Cumbria
Z:vmp.Simon Wilson. Review PJH, 2008.
M:2/4
L:1/8
Q:1/4=90
K:C
cd|(ec) (fd)|(e/d/c) ef|gg ag/g/|fe gg|\
ga/b/ ag|gf ff|(fg/a/) gf|fe g>g|\
ba gb|c’2g>g|aa gb|c’2:|!
|:gg|Tg4|Tg4|Tg4|Tg4|\
Tg4|Tg4|aa/a/|ge g/f/e/d/|\
e2 a>a|ge g/f/e/d/|c2ga|fd G/A/B/G/|!
cC ga|fd G/A/B/G/|cC gg|ee ag|\
gf ff|fg/a/ gf|fc g>g|aa ab|\
c’2g>g|aa gb|c’2:|

